X: 36113
T: Schottische Du Stockfish
R: barndance
M: 4/4
K: Aminor
|:A|ABcd e2ef|edce d2dd|e2e2 A2A2|Bcdc B2B2|
ABcd e2ef|edce d2dd|e2e2 A2Ac|BAGB A3:|
|:e|e2e2 gg2e|d2c2 dd2d|d2e2 A2A2|Bcdc B3e|
e2e2 gg2e|d2c2 dd2d|d2e2 A2Ac|BAGB A3:|

